nova/resources/svg/fluent/delete.svg

<svg width="24" height="24" viewBox="0 0 24 24" fill="none" xmlns="http://www.w3.org/2000/svg">
<path d="M12 1.75C13.733 1.75 15.1492 3.10645 15.2449 4.81558L15.25 5H20.5C20.9142 5 21.25 5.33579 21.25 5.75C21.25 6.1297 20.9678 6.44349 20.6018 6.49315L20.5 6.5H19.704L18.4239 19.5192C18.2912 20.8683 17.1984 21.91 15.8626 21.9945L15.6871 22H8.31293C6.95734 22 5.81365 21.0145 5.59883 19.6934L5.57614 19.5192L4.295 6.5H3.5C3.1203 6.5 2.80651 6.21785 2.75685 5.85177L2.75 5.75C2.75 5.3703 3.03215 5.05651 3.39823 5.00685L3.5 5H8.75C8.75 3.20507 10.2051 1.75 12 1.75ZM18.197 6.5H5.802L7.06893 19.3724C7.12768 19.9696 7.60033 20.4343 8.18585 20.4936L8.31293 20.5H15.6871C16.2872 20.5 16.7959 20.0751 16.9123 19.4982L16.9311 19.3724L18.197 6.5ZM13.75 9.25C14.1297 9.25 14.4435 9.53215 14.4932 9.89823L14.5 10V17C14.5 17.4142 14.1642 17.75 13.75 17.75C13.3703 17.75 13.0565 17.4678 13.0068 17.1018L13 17V10C13 9.58579 13.3358 9.25 13.75 9.25ZM10.25 9.25C10.6297 9.25 10.9435 9.53215 10.9932 9.89823L11 10V17C11 17.4142 10.6642 17.75 10.25 17.75C9.8703 17.75 9.55651 17.4678 9.50685 17.1018L9.5 17V10C9.5 9.58579 9.83579 9.25 10.25 9.25ZM12 3.25C11.0818 3.25 10.3288 3.95711 10.2558 4.85647L10.25 5H13.75C13.75 4.0335 12.9665 3.25 12 3.25Z" fill="currentColor"/>
</svg>

<svg viewBox="0 0 24 24" fill="none" xmlns="http://www.w3.org/2000/svg"><path d="M12 1.75a3.25 3.25 0 013.245 3.066L15.25 5h5.25a.75.75 0 01.102 1.493L20.5 6.5h-.796l-1.28 13.02a2.75 2.75 0 01-2.561 2.474l-.176.006H8.313a2.75 2.75 0 01-2.714-2.307l-.023-.174L4.295 6.5H3.5a.75.75 0 01-.743-.648L2.75 5.75a.75.75 0 01.648-.743L3.5 5h5.25A3.25 3.25 0 0112 1.75zm6.197 4.75H5.802l1.267 12.872a1.25 1.25 0 001.117 1.122l.127.006h7.374c.6 0 1.109-.425 1.225-1.002l.02-.126L18.196 6.5zM13.75 9.25a.75.75 0 01.743.648L14.5 10v7a.75.75 0 01-1.493.102L13 17v-7a.75.75 0 01.75-.75zm-3.5 0a.75.75 0 01.743.648L11 10v7a.75.75 0 01-1.493.102L9.5 17v-7a.75.75 0 01.75-.75zm1.75-6a1.75 1.75 0 00-1.744 1.606L10.25 5h3.5A1.75 1.75 0 0012 3.25z" fill="currentColor"/></svg>
